X:1
T:Title
%%score { ( 1 3 ) | ( 2 4 ) }
L:1/8
Q:1/4=100
M:4/4
K:G
V:1 treble nm="Grand Piano"
V:3 treble 
V:2 bass 
V:4 bass 
V:1
 B2 B2 B2 A2 | A4 G4 | c2 d2 c2 B2 | A8 | [Dd]2 [Dd]2 A2 A2 | B4 [B,DG]4 | %6
w: S.~M.~Bixby * * *||||||
 [A,DF]2 D-[DF] [^CG]2 [CA]2 | F8[K:bass] | D2[K:treble] D2 [B,E]2 [C=F]2 | [C=F]4 [CE]4 | %10
w: ||||
 [Ec]2 [EB]2 [EA]2 [EG]2 | G4 F4 | [Dd]2 [Dd]2 [Dd]2 A2 | c4 B4 | G2 FG [DFB]2 [CFA]2 | [B,G]8 | %16
w: ||||||
 B2 B2 B2 A2 | A4 z2 =F2 | [Ee]2 [Ed]2 [Ec]2 [EB]2 | A4- [DA]4 | B2 c2 d2 B2 | A4 G4 | %22
w: ||||||
 [EG]2 cB B2 A2 |[M:8/4] [G,B,G]8 z8 |[M:4/4] G8 | [B,DG]8 |] %26
w: ||||
V:2
 [G,D]2 [G,B,D]2 [G,D]2 [G,CD]2 | [G,CD]4 [G,B,D]4 | [F,A,D]2 [F,A,D]2 [F,A,D]2 [G,D]2 | [D,F,D]8 | %4
 [B,,G,]2 [B,,G,]2 [D,F,D]2 [D,F,D]2 | [G,D]4 G,,4 | A,,2 z F, [A,,E,]2 [A,,A,]2 | [A,D]8 | %8
 [B,,G,]2 [B,,G,]2 [G,,G,]2 [G,,G,]2 | [C,A,]4 [C,G,]4 | [A,,A,]2 [B,,^G,]2 [D,A,]2 [^C,_B,]2 | %11
 B,4 A,4 | [B,,G,]2 [B,,G,]2 [D,F,]2 [D,F,D]2 | [G,E]4 [G,D]4 | z2 [D,D]2 z4 | G,,8 | %16
 [G,D]2 [G,B,^D]2 [G,=DE]2 [G,CF]2 | [G,CF]4[K:bass] [G,B,]4 | [C,C]2 [C,B,]2 [C,A,]2 [C,G,]2 | %19
 G,4 z4 | [G,D]2 [G,A,D]2 [G,B,D]2 [G,DG]2 | [G,C=F]4 [G,B,F]4 | [C,C]2 [C,G,]2 [D,G,D]2 [D,F,C]2 | %23
[M:8/4] G,,8 z8 |[M:4/4] z4 A,4 | G,,8 |] %26
V:3
 x8 | x8 | x8 | x8 | x8 | x8 | z2 .[G,E]2 z4 | z4 z2[K:bass] C,2 | x2[K:treble] x6 | x8 | x8 | x8 | %12
 x8 | x8 | x8 | x8 | x8 | z4 G4 | x8 | E4 z4 | x8 | x8 | z2 E2 z4 |[M:8/4] x16 | %24
[M:4/4] [G,E]4 ^D4 | x8 |] %26
V:4
 x8 | x8 | x8 | x8 | x8 | x8 | z2 A,,2 z4 | D,6 z2 | x8 | x8 | x8 | [D,D]8 | x8 | x8 | %14
 [D,B,D]2 A,B, D,2 D,2 | x8 | x8 | x4[K:bass] x4 | x8 | D,4- [D,F,]4 | x8 | x8 | x8 |[M:8/4] x16 | %24
[M:4/4] C,8 | x8 |] %26

